X:70
T:Lord Gordon's       Reel  Allan's   #70    pg18
C:Trad/Anon
B:Allan's Irish Fiddler (pub. Mozart Allen,  Glascow) date unknown
Z:FROM ALLAN'S TO NOTEWORTHY, FROM NOTEWORTHY TO ABC, MIDI AND .TXT BY VINCE
BRENNAN Dec. 2002 (HTTP://WWW.SOSYOURMOM.COM)
I:abc2nwc
M:2/2
L:1/8
K:D
dB|AD (3(FED) ADFD|AD (3(FED) FAdc|BE  (3(GFE) BE  (3(GFE)|BE  (3(EEE) (BA)FA|
dcdf ecdB|AFDF A2(Bc)| (3(dcB) (cA) BFAF|(EF)GA Bc:|
|:de|f2df afdg| (3(fgf) df a2gf|efga bgec|defd B2 (3(ABc)|
dcdf ecdB|AFDF A2(Bc)| (3(dcB) cA BFAF|[1EFGA Bc:|[2EFGAd2|]
